src/lib/packages/icons/src/assets/line/code-circle.svg

<svg width="24" height="24" viewBox="0 0 24 24" fill="none" xmlns="http://www.w3.org/2000/svg">
<path d="M12 1.25C6.072 1.25 1.25 6.073 1.25 12C1.25 17.927 6.072 22.75 12 22.75C17.928 22.75 22.75 17.927 22.75 12C22.75 6.073 17.928 1.25 12 1.25ZM12 21.25C6.899 21.25 2.75 17.101 2.75 12C2.75 6.899 6.899 2.75 12 2.75C17.101 2.75 21.25 6.899 21.25 12C21.25 17.101 17.101 21.25 12 21.25ZM9.752 10.308L8.061 12L9.75301 13.692C10.046 13.985 10.046 14.46 9.75301 14.753C9.60701 14.899 9.41501 14.973 9.22301 14.973C9.03101 14.973 8.83899 14.9 8.69299 14.753L6.47099 12.531C6.17799 12.238 6.17799 11.763 6.47099 11.47L8.69299 9.24799C8.98599 8.95499 9.461 8.95499 9.754 9.24799C10.045 9.53999 10.045 10.015 9.752 10.308ZM17.53 11.47C17.823 11.763 17.823 12.238 17.53 12.531L15.308 14.753C15.162 14.899 14.97 14.973 14.778 14.973C14.586 14.973 14.394 14.9 14.248 14.753C13.955 14.46 13.955 13.985 14.248 13.692L15.94 12L14.248 10.308C13.955 10.015 13.955 9.54001 14.248 9.24701C14.541 8.95401 15.016 8.95401 15.309 9.24701L17.53 11.47ZM13.728 8.18201L11.728 16.182C11.643 16.523 11.337 16.75 11.001 16.75C10.941 16.75 10.88 16.743 10.818 16.727C10.416 16.627 10.172 16.219 10.273 15.818L12.273 7.81799C12.373 7.41599 12.776 7.172 13.183 7.272C13.584 7.373 13.828 7.78001 13.728 8.18201Z" fill="currentColor"/>
</svg>

<svg xmlns="http://www.w3.org/2000/svg" width="24" height="24" fill="none"><path fill="currentColor" d="M12 1.25C6.072 1.25 1.25 6.073 1.25 12S6.072 22.75 12 22.75 22.75 17.927 22.75 12 17.928 1.25 12 1.25Zm0 20c-5.101 0-9.25-4.149-9.25-9.25S6.899 2.75 12 2.75s9.25 4.149 9.25 9.25-4.149 9.25-9.25 9.25ZM9.752 10.308 8.061 12l1.692 1.692a.75.75 0 0 1-1.06 1.061l-2.222-2.222a.75.75 0 0 1 0-1.061l2.222-2.222a.75.75 0 1 1 1.059 1.06Zm7.778 1.162a.75.75 0 0 1 0 1.061l-2.222 2.222a.748.748 0 0 1-1.06 0 .75.75 0 0 1 0-1.061L15.94 12l-1.692-1.692a.75.75 0 1 1 1.061-1.061l2.221 2.223Zm-3.802-3.288-2 8a.75.75 0 1 1-1.455-.364l2-8a.748.748 0 0 1 .91-.546.751.751 0 0 1 .545.91Z"/></svg>
